X: 2
T: Hundred Pipers
R: jig
M: 6/8
L: 1/8
K: Amaj
M: 12/8
|: AB |c2 E E^DE F2 A A2 f | e2 c cBA c2 B B^AB |
c2 E E^DE F2 A A2 f | e2 c BcB A3- A :|
|: AB |c2 e ece f2 a a2 f | e2 c- cBA c2 B B^AB |
cee ec/d/e faa agf | ecc B^AB =A2 G A- :|


Tune 1232	Setting 24519

